svg/smoke.svg

<svg xmlns="http://www.w3.org/2000/svg" viewBox="0 0 24 24"><path d="M17 19v3h-2v-3c0-1.1-.9-2-2-2h-3c-2.8 0-5-2.2-5-5 0-1.2.4-2.2 1.1-3.1C3.8 8.5 2 6.4 2 4c0-.7.2-1.4.4-2h2.4c-.5.5-.8 1.2-.8 2 0 1.7 1.3 3 3 3h3v2c-1.7 0-3 1.3-3 3s1.3 3 3 3h3c2.2 0 4 1.8 4 4m.9-10.1C20.2 8.5 22 6.4 22 4c0-.7-.2-1.4-.4-2h-2.4c.5.5.8 1.2.8 2 0 1.7-1.3 3-3 3h-1.2c.1.3.2.6.2 1 0 1.7-1.3 3-3 3v2c2.8 0 5 2.2 5 5v4h2v-4c0-2.7-1.5-5-3.8-6.2.9-.7 1.5-1.7 1.7-2.9"/></svg>

<svg xmlns="http://www.w3.org/2000/svg" id="mdi-smoke" viewBox="0 0 24 24"><path d="M17 19V22H15V19C15 17.9 14.1 17 13 17H10C7.2 17 5 14.8 5 12C5 10.8 5.4 9.8 6.1 8.9C3.8 8.5 2 6.4 2 4C2 3.3 2.2 2.6 2.4 2H4.8C4.3 2.5 4 3.2 4 4C4 5.7 5.3 7 7 7H10V9C8.3 9 7 10.3 7 12S8.3 15 10 15H13C15.2 15 17 16.8 17 19M17.9 8.9C20.2 8.5 22 6.4 22 4C22 3.3 21.8 2.6 21.6 2H19.2C19.7 2.5 20 3.2 20 4C20 5.7 18.7 7 17 7H15.8C15.9 7.3 16 7.6 16 8C16 9.7 14.7 11 13 11V13C15.8 13 18 15.2 18 18V22H20V18C20 15.3 18.5 13 16.2 11.8C17.1 11.1 17.7 10.1 17.9 8.9Z" /></svg>
